; Generated by Image to G-Code Converter
; Image processed on 2025-11-11 23:34:48
G21 ; Set units to mm
G90 ; Absolute positioning
G28 ; Home all axes
G92 X0 Y0 ; Set current position to origin
G1 Z5.0 F3000 ; Move pen up
; Contour 1 with 390 points
G0 X66.0 Y10.0 ; Move to start
G1 Z-2.0 F1000 ; Lower pen
G1 X65.5 Y10.5 F2000
G1 X62.5 Y10.5 F2000
G1 X62.0 Y11.0 F2000
G1 X59.5 Y11.0 F2000
G1 X59.0 Y11.5 F2000
G1 X57.5 Y11.5 F2000
G1 X57.0 Y12.0 F2000
G1 X55.5 Y12.0 F2000
G1 X55.0 Y12.5 F2000
G1 X54.0 Y12.5 F2000
G1 X53.5 Y13.0 F2000
G1 X52.5 Y13.0 F2000
G1 X52.0 Y13.5 F2000
G1 X51.5 Y13.5 F2000
G1 X51.0 Y14.0 F2000
G1 X50.0 Y14.0 F2000
G1 X49.5 Y14.5 F2000
G1 X48.5 Y14.5 F2000
G1 X48.0 Y15.0 F2000
G1 X47.5 Y15.0 F2000
G1 X47.0 Y15.5 F2000
G1 X46.5 Y15.5 F2000
G1 X46.0 Y16.0 F2000
G1 X45.5 Y16.0 F2000
G1 X45.0 Y16.5 F2000
G1 X44.5 Y16.5 F2000
G1 X44.0 Y17.0 F2000
G1 X43.5 Y17.0 F2000
G1 X42.5 Y18.0 F2000
G1 X42.0 Y18.0 F2000
G1 X41.5 Y18.5 F2000
G1 X41.0 Y18.5 F2000
G1 X40.0 Y19.5 F2000
G1 X39.5 Y19.5 F2000
G1 X38.5 Y20.5 F2000
G1 X38.0 Y20.5 F2000
G1 X36.0 Y22.5 F2000
G1 X35.5 Y22.5 F2000
G1 X33.0 Y25.0 F2000
G1 X32.5 Y25.0 F2000
G1 X28.5 Y29.0 F2000
G1 X28.5 Y29.5 F2000
G1 X25.5 Y32.5 F2000
G1 X25.5 Y33.0 F2000
G1 X24.0 Y34.5 F2000
G1 X24.0 Y35.0 F2000
G1 X23.0 Y36.0 F2000
G1 X23.0 Y36.5 F2000
G1 X21.5 Y38.0 F2000
G1 X21.5 Y38.5 F2000
G1 X21.0 Y39.0 F2000
G1 X21.0 Y39.5 F2000
G1 X20.0 Y40.5 F2000
G1 X20.0 Y41.0 F2000
G1 X19.5 Y41.5 F2000
G1 X19.5 Y42.0 F2000
G1 X19.0 Y42.5 F2000
G1 X19.0 Y43.0 F2000
G1 X18.0 Y44.0 F2000
G1 X18.0 Y44.5 F2000
G1 X17.5 Y45.0 F2000
G1 X17.5 Y45.5 F2000
G1 X17.0 Y46.0 F2000
G1 X17.0 Y46.5 F2000
G1 X16.5 Y47.0 F2000
G1 X16.5 Y48.0 F2000
G1 X16.0 Y48.5 F2000
G1 X16.0 Y49.5 F2000
G1 X15.5 Y50.0 F2000
G1 X15.5 Y50.5 F2000
G1 X15.0 Y51.0 F2000
G1 X15.0 Y52.0 F2000
G1 X14.5 Y52.5 F2000
G1 X14.5 Y53.0 F2000
G1 X14.0 Y53.5 F2000
G1 X14.0 Y54.5 F2000
G1 X13.5 Y55.0 F2000
G1 X13.5 Y56.0 F2000
G1 X13.0 Y56.5 F2000
G1 X13.0 Y58.0 F2000
G1 X12.5 Y58.5 F2000
G1 X12.5 Y59.5 F2000
G1 X12.0 Y60.0 F2000
G1 X12.0 Y61.5 F2000
G1 X11.5 Y62.0 F2000
G1 X11.5 Y64.0 F2000
G1 X11.0 Y64.5 F2000
G1 X11.0 Y67.0 F2000
G1 X10.5 Y67.5 F2000
G1 X10.5 Y71.0 F2000
G1 X10.0 Y71.5 F2000
G1 X10.0 Y83.5 F2000
G1 X10.5 Y84.0 F2000
G1 X10.5 Y87.5 F2000
G1 X11.0 Y88.0 F2000
G1 X11.0 Y90.5 F2000
G1 X11.5 Y91.0 F2000
G1 X11.5 Y92.5 F2000
G1 X12.0 Y93.0 F2000
G1 X12.0 Y94.5 F2000
G1 X12.5 Y95.0 F2000
G1 X12.5 Y96.5 F2000
G1 X13.0 Y97.0 F2000
G1 X13.0 Y98.0 F2000
G1 X13.5 Y98.5 F2000
G1 X13.5 Y99.5 F2000
G1 X14.0 Y100.0 F2000
G1 X14.0 Y101.0 F2000
G1 X14.5 Y101.5 F2000
G1 X14.5 Y102.5 F2000
G1 X15.0 Y103.0 F2000
G1 X15.0 Y103.5 F2000
G1 X15.5 Y104.0 F2000
G1 X15.5 Y105.0 F2000
G1 X16.0 Y105.5 F2000
G1 X16.0 Y106.5 F2000
G1 X16.5 Y107.0 F2000
G1 X16.5 Y107.5 F2000
G1 X17.0 Y108.0 F2000
G1 X17.0 Y108.5 F2000
G1 X17.5 Y109.0 F2000
G1 X17.5 Y109.5 F2000
G1 X18.0 Y110.0 F2000
G1 X18.0 Y110.5 F2000
G1 X18.5 Y111.0 F2000
G1 X18.5 Y111.5 F2000
G1 X19.0 Y112.0 F2000
G1 X19.0 Y112.5 F2000
G1 X19.5 Y113.0 F2000
G1 X19.5 Y113.5 F2000
G1 X20.0 Y114.0 F2000
G1 X20.0 Y114.5 F2000
G1 X20.5 Y115.0 F2000
G1 X20.5 Y115.5 F2000
G1 X21.5 Y116.5 F2000
G1 X21.5 Y117.0 F2000
G1 X22.0 Y117.5 F2000
G1 X22.0 Y118.0 F2000
G1 X23.0 Y119.0 F2000
G1 X23.0 Y119.5 F2000
G1 X23.5 Y120.0 F2000
G1 X23.5 Y120.5 F2000
G1 X24.5 Y121.5 F2000
G1 X24.5 Y122.0 F2000
G1 X25.5 Y123.0 F2000
G1 X25.5 Y123.5 F2000
G1 X26.5 Y124.5 F2000
G1 X26.5 Y125.0 F2000
G1 X28.0 Y126.5 F2000
G1 X28.0 Y127.0 F2000
G1 X29.5 Y128.5 F2000
G1 X29.5 Y129.0 F2000
G1 X31.0 Y130.5 F2000
G1 X31.0 Y131.0 F2000
G1 X33.0 Y133.0 F2000
G1 X33.0 Y133.5 F2000
G1 X36.0 Y136.5 F2000
G1 X36.0 Y137.0 F2000
G1 X47.0 Y148.0 F2000
G1 X47.5 Y148.0 F2000
G1 X50.0 Y150.5 F2000
G1 X50.5 Y150.5 F2000
G1 X52.5 Y152.5 F2000
G1 X53.0 Y152.5 F2000
G1 X54.5 Y154.0 F2000
G1 X55.0 Y154.0 F2000
G1 X56.0 Y155.0 F2000
G1 X56.5 Y155.0 F2000
G1 X57.5 Y156.0 F2000
G1 X58.0 Y156.0 F2000
G1 X59.0 Y157.0 F2000
G1 X59.5 Y157.0 F2000
G1 X60.5 Y158.0 F2000
G1 X61.0 Y158.0 F2000
G1 X61.5 Y158.5 F2000
G1 X62.0 Y158.5 F2000
G1 X62.5 Y159.0 F2000
G1 X63.0 Y159.0 F2000
G1 X63.5 Y159.5 F2000
G1 X64.0 Y159.5 F2000
G1 X64.5 Y160.0 F2000
G1 X65.5 Y160.0 F2000
G1 X66.0 Y160.5 F2000
G1 X66.5 Y160.5 F2000
G1 X67.0 Y161.0 F2000
G1 X68.5 Y161.0 F2000
G1 X69.0 Y161.5 F2000
G1 X69.5 Y161.5 F2000
G1 X70.5 Y162.5 F2000
G1 X70.0 Y163.0 F2000
G1 X70.0 Y165.0 F2000
G1 X70.5 Y165.5 F2000
G1 X70.5 Y166.0 F2000
G1 X71.0 Y166.5 F2000
G1 X72.5 Y166.5 F2000
G1 X73.0 Y166.0 F2000
G1 X74.5 Y166.0 F2000
G1 X75.5 Y165.0 F2000
G1 X75.5 Y163.0 F2000
G1 X74.0 Y161.5 F2000
G1 X74.5 Y161.0 F2000
G1 X75.0 Y161.0 F2000
G1 X75.5 Y160.5 F2000
G1 X76.0 Y160.5 F2000
G1 X76.5 Y160.0 F2000
G1 X77.5 Y160.0 F2000
G1 X78.0 Y159.5 F2000
G1 X78.5 Y159.5 F2000
G1 X79.0 Y159.0 F2000
G1 X79.5 Y159.0 F2000
G1 X80.0 Y158.5 F2000
G1 X80.5 Y158.5 F2000
G1 X81.5 Y157.5 F2000
G1 X82.0 Y157.5 F2000
G1 X82.5 Y157.0 F2000
G1 X83.0 Y157.0 F2000
G1 X84.0 Y156.0 F2000
G1 X84.5 Y156.0 F2000
G1 X85.5 Y155.0 F2000
G1 X86.0 Y155.0 F2000
G1 X87.5 Y153.5 F2000
G1 X88.0 Y153.5 F2000
G1 X89.5 Y152.0 F2000
G1 X90.0 Y152.0 F2000
G1 X92.0 Y150.0 F2000
G1 X92.5 Y150.0 F2000
G1 X96.0 Y146.5 F2000
G1 X96.5 Y146.5 F2000
G1 X104.5 Y138.5 F2000
G1 X104.5 Y138.0 F2000
G1 X108.0 Y134.5 F2000
G1 X108.0 Y134.0 F2000
G1 X110.0 Y132.0 F2000
G1 X110.0 Y131.5 F2000
G1 X112.0 Y129.5 F2000
G1 X112.0 Y129.0 F2000
G1 X113.5 Y127.5 F2000
G1 X113.5 Y127.0 F2000
G1 X115.0 Y125.5 F2000
G1 X115.0 Y125.0 F2000
G1 X116.0 Y124.0 F2000
G1 X116.0 Y123.5 F2000
G1 X117.0 Y122.5 F2000
G1 X117.0 Y122.0 F2000
G1 X118.0 Y121.0 F2000
G1 X118.0 Y120.5 F2000
G1 X118.5 Y120.0 F2000
G1 X118.5 Y119.5 F2000
G1 X119.5 Y118.5 F2000
G1 X119.5 Y118.0 F2000
G1 X120.5 Y117.0 F2000
G1 X120.5 Y116.5 F2000
G1 X121.0 Y116.0 F2000
G1 X121.0 Y115.5 F2000
G1 X121.5 Y115.0 F2000
G1 X121.5 Y114.5 F2000
G1 X122.0 Y114.0 F2000
G1 X122.0 Y113.5 F2000
G1 X123.0 Y112.5 F2000
G1 X123.0 Y112.0 F2000
G1 X123.5 Y111.5 F2000
G1 X123.5 Y111.0 F2000
G1 X124.0 Y110.5 F2000
G1 X124.0 Y109.5 F2000
G1 X124.5 Y109.0 F2000
G1 X124.5 Y108.5 F2000
G1 X125.0 Y108.0 F2000
G1 X125.0 Y107.5 F2000
G1 X125.5 Y107.0 F2000
G1 X125.5 Y106.0 F2000
G1 X126.0 Y105.5 F2000
G1 X126.0 Y105.0 F2000
G1 X126.5 Y104.5 F2000
G1 X126.5 Y104.0 F2000
G1 X127.0 Y103.5 F2000
G1 X127.0 Y102.5 F2000
G1 X127.5 Y102.0 F2000
G1 X127.5 Y101.0 F2000
G1 X128.0 Y100.5 F2000
G1 X128.0 Y100.0 F2000
G1 X128.5 Y99.5 F2000
G1 X128.5 Y98.0 F2000
G1 X129.0 Y97.5 F2000
G1 X129.0 Y96.5 F2000
G1 X129.5 Y96.0 F2000
G1 X129.5 Y94.5 F2000
G1 X130.0 Y94.0 F2000
G1 X130.0 Y92.5 F2000
G1 X130.5 Y92.0 F2000
G1 X130.5 Y90.5 F2000
G1 X131.0 Y90.0 F2000
G1 X131.0 Y87.0 F2000
G1 X131.5 Y86.5 F2000
G1 X131.5 Y82.0 F2000
G1 X132.0 Y81.5 F2000
G1 X132.0 Y73.5 F2000
G1 X131.5 Y73.0 F2000
G1 X131.5 Y68.5 F2000
G1 X131.0 Y68.0 F2000
G1 X131.0 Y65.0 F2000
G1 X130.5 Y64.5 F2000
G1 X130.5 Y62.5 F2000
G1 X130.0 Y62.0 F2000
G1 X130.0 Y60.5 F2000
G1 X129.5 Y60.0 F2000
G1 X129.5 Y58.5 F2000
G1 X129.0 Y58.0 F2000
G1 X129.0 Y57.0 F2000
G1 X128.5 Y56.5 F2000
G1 X128.5 Y55.5 F2000
G1 X128.0 Y55.0 F2000
G1 X128.0 Y54.0 F2000
G1 X127.5 Y53.5 F2000
G1 X127.5 Y52.5 F2000
G1 X127.0 Y52.0 F2000
G1 X127.0 Y51.5 F2000
G1 X126.5 Y51.0 F2000
G1 X126.5 Y50.0 F2000
G1 X126.0 Y49.5 F2000
G1 X126.0 Y48.5 F2000
G1 X125.5 Y48.0 F2000
G1 X125.5 Y47.5 F2000
G1 X125.0 Y47.0 F2000
G1 X125.0 Y46.5 F2000
G1 X124.5 Y46.0 F2000
G1 X124.5 Y45.5 F2000
G1 X124.0 Y45.0 F2000
G1 X124.0 Y44.5 F2000
G1 X123.5 Y44.0 F2000
G1 X123.5 Y43.5 F2000
G1 X123.0 Y43.0 F2000
G1 X123.0 Y42.5 F2000
G1 X122.5 Y42.0 F2000
G1 X122.5 Y41.5 F2000
G1 X121.5 Y40.5 F2000
G1 X121.5 Y40.0 F2000
G1 X121.0 Y39.5 F2000
G1 X121.0 Y39.0 F2000
G1 X120.0 Y38.0 F2000
G1 X120.0 Y37.5 F2000
G1 X119.0 Y36.5 F2000
G1 X119.0 Y36.0 F2000
G1 X117.5 Y34.5 F2000
G1 X117.5 Y34.0 F2000
G1 X116.0 Y32.5 F2000
G1 X116.0 Y32.0 F2000
G1 X112.0 Y28.0 F2000
G1 X112.0 Y27.5 F2000
G1 X111.0 Y26.5 F2000
G1 X110.5 Y26.5 F2000
G1 X107.0 Y23.0 F2000
G1 X106.5 Y23.0 F2000
G1 X104.5 Y21.0 F2000
G1 X104.0 Y21.0 F2000
G1 X103.0 Y20.0 F2000
G1 X102.5 Y20.0 F2000
G1 X101.5 Y19.0 F2000
G1 X101.0 Y19.0 F2000
G1 X100.0 Y18.0 F2000
G1 X99.5 Y18.0 F2000
G1 X99.0 Y17.5 F2000
G1 X98.5 Y17.5 F2000
G1 X97.5 Y16.5 F2000
G1 X97.0 Y16.5 F2000
G1 X96.5 Y16.0 F2000
G1 X96.0 Y16.0 F2000
G1 X95.5 Y15.5 F2000
G1 X95.0 Y15.5 F2000
G1 X94.5 Y15.0 F2000
G1 X93.5 Y15.0 F2000
G1 X93.0 Y14.5 F2000
G1 X92.5 Y14.5 F2000
G1 X92.0 Y14.0 F2000
G1 X91.0 Y14.0 F2000
G1 X90.5 Y13.5 F2000
G1 X89.5 Y13.5 F2000
G1 X89.0 Y13.0 F2000
G1 X88.5 Y13.0 F2000
G1 X88.0 Y12.5 F2000
G1 X86.5 Y12.5 F2000
G1 X86.0 Y12.0 F2000
G1 X85.0 Y12.0 F2000
G1 X84.5 Y11.5 F2000
G1 X83.0 Y11.5 F2000
G1 X82.5 Y11.0 F2000
G1 X80.0 Y11.0 F2000
G1 X79.5 Y10.5 F2000
G1 X76.5 Y10.5 F2000
G1 X76.0 Y10.0 F2000
; Closing the loop for contour 1
G1 X66.0 Y10.0 F2000
G1 Z5.0 F3000 ; Lift pen
G0 X0 Y0 ; Return to origin
M84 ; Disable motors
; End of G-code