; Generated by Image to G-Code Converter
; Created on 2025-11-12 00:06:13
G21 ; Set units to millimeters
G90 ; Use absolute positioning

; Initial positioning
G1 Z5.0 F1000 ; Pen up
G0 X10 Y10 F3000 ; Move to safe starting position

; Contour 1 with 14 points
G0 X178.0 Y318.5 F3000 ; Move to start
G1 Z-2.0 F1000 ; Lower pen
G1 X178.5 Y319.0 F2000
G1 X178.5 Y319.5 F2000
G1 X178.5 Y319.0 F2000
G1 X179.0 Y318.5 F2000
G1 X179.5 Y318.5 F2000
G1 X180.0 Y319.0 F2000
G1 X180.5 Y319.0 F2000
G1 X181.0 Y319.5 F2000
G1 X181.5 Y319.0 F2000
G1 X180.0 Y319.0 F2000
G1 X179.5 Y318.5 F2000
G1 X179.0 Y318.5 F2000
G1 X178.5 Y319.0 F2000
G1 Z5.0 F3000 ; Lift pen

; Contour 2 with 49 points
G0 X42.5 Y307.5 F3000 ; Move to start
G1 Z-2.0 F1000 ; Lower pen
G1 X42.0 Y308.0 F2000
G1 X42.0 Y308.5 F2000
G1 X41.5 Y309.0 F2000
G1 X41.5 Y309.5 F2000
G1 X41.0 Y310.0 F2000
G1 X41.0 Y310.5 F2000
G1 X40.5 Y311.0 F2000
G1 X40.5 Y311.5 F2000
G1 X40.5 Y311.0 F2000
G1 X41.0 Y310.5 F2000
G1 X41.0 Y310.0 F2000
G1 X42.0 Y309.0 F2000
G1 X42.0 Y308.5 F2000
G1 X43.0 Y307.5 F2000
G1 X44.0 Y308.5 F2000
G1 X43.0 Y309.5 F2000
G1 X43.0 Y310.0 F2000
G1 X42.5 Y310.5 F2000
G1 X42.5 Y311.0 F2000
G1 X42.0 Y311.5 F2000
G1 X42.0 Y312.0 F2000
G1 X41.5 Y312.5 F2000
G1 X41.5 Y314.0 F2000
G1 X41.0 Y314.5 F2000
G1 X41.0 Y315.0 F2000
G1 X40.5 Y315.5 F2000
G1 X40.5 Y316.5 F2000
G1 X39.0 Y318.0 F2000
G1 X39.0 Y318.5 F2000
G1 X40.0 Y317.5 F2000
G1 X40.0 Y317.0 F2000
G1 X40.5 Y316.5 F2000
G1 X40.5 Y316.0 F2000
G1 X41.0 Y315.5 F2000
G1 X41.0 Y314.5 F2000
G1 X41.5 Y314.0 F2000
G1 X41.5 Y313.0 F2000
G1 X42.0 Y312.5 F2000
G1 X42.0 Y312.0 F2000
G1 X42.5 Y311.5 F2000
G1 X42.5 Y311.0 F2000
G1 X43.0 Y310.5 F2000
G1 X43.0 Y310.0 F2000
G1 X43.5 Y309.5 F2000
G1 X43.5 Y309.0 F2000
G1 X44.0 Y308.5 F2000
G1 X43.5 Y308.0 F2000
G1 X44.0 Y307.5 F2000
; Closing contour 2
G1 X42.5 Y307.5 F2000
G1 Z5.0 F3000 ; Lift pen

; Contour 3 with 150 points
G0 X267.0 Y305.5 F3000 ; Move to start
G1 Z-2.0 F1000 ; Lower pen
G1 X266.5 Y306.0 F2000
G1 X266.0 Y306.0 F2000
G1 X265.5 Y306.5 F2000
G1 X265.0 Y306.5 F2000
G1 X264.5 Y307.0 F2000
G1 X264.5 Y308.0 F2000
G1 X265.0 Y308.5 F2000
G1 X265.5 Y308.0 F2000
G1 X266.0 Y308.5 F2000
G1 X266.5 Y308.0 F2000
G1 X267.0 Y308.0 F2000
G1 X267.5 Y307.5 F2000
G1 X269.0 Y307.5 F2000
G1 X269.5 Y308.0 F2000
G1 X277.5 Y308.0 F2000
G1 X278.0 Y308.5 F2000
G1 X278.5 Y308.5 F2000
G1 X279.0 Y309.0 F2000
G1 X279.0 Y310.0 F2000
G1 X278.5 Y310.5 F2000
G1 X278.5 Y311.0 F2000
G1 X278.0 Y311.5 F2000
G1 X278.0 Y312.0 F2000
G1 X277.5 Y312.5 F2000
G1 X277.5 Y313.5 F2000
G1 X277.0 Y314.0 F2000
G1 X277.0 Y314.5 F2000
G1 X276.0 Y315.5 F2000
G1 X276.0 Y316.0 F2000
G1 X275.0 Y317.0 F2000
G1 X275.0 Y318.0 F2000
G1 X274.5 Y318.5 F2000
G1 X274.5 Y319.5 F2000
G1 X274.5 Y319.0 F2000
G1 X275.0 Y318.5 F2000
G1 X275.0 Y317.5 F2000
G1 X276.0 Y316.5 F2000
G1 X276.0 Y316.0 F2000
G1 X277.0 Y315.0 F2000
G1 X277.0 Y314.0 F2000
G1 X277.5 Y313.5 F2000
G1 X277.5 Y313.0 F2000
G1 X278.0 Y312.5 F2000
G1 X278.0 Y311.5 F2000
G1 X278.5 Y311.0 F2000
G1 X278.5 Y310.5 F2000
G1 X279.0 Y310.0 F2000
G1 X279.0 Y308.5 F2000
G1 X278.0 Y308.5 F2000
G1 X277.5 Y308.0 F2000
G1 X269.5 Y308.0 F2000
G1 X269.0 Y307.5 F2000
G1 X267.5 Y307.5 F2000
G1 X267.0 Y308.0 F2000
G1 X266.5 Y308.0 F2000
G1 X266.0 Y308.5 F2000
G1 X265.5 Y308.0 F2000
G1 X265.0 Y308.0 F2000
G1 X264.5 Y307.5 F2000
G1 X266.0 Y306.0 F2000
G1 X271.5 Y306.0 F2000
G1 X272.0 Y306.5 F2000
G1 X279.0 Y306.5 F2000
G1 X279.5 Y307.0 F2000
G1 X280.5 Y307.0 F2000
G1 X281.0 Y307.5 F2000
G1 X283.5 Y307.5 F2000
G1 X284.0 Y308.0 F2000
G1 X286.0 Y308.0 F2000
G1 X286.5 Y308.5 F2000
G1 X287.5 Y308.5 F2000
G1 X288.0 Y309.0 F2000
G1 X288.5 Y309.0 F2000
G1 X289.0 Y309.5 F2000
G1 X289.5 Y309.5 F2000
G1 X290.0 Y310.0 F2000
G1 X290.5 Y310.0 F2000
G1 X291.5 Y311.0 F2000
G1 X292.0 Y311.0 F2000
G1 X292.5 Y311.5 F2000
G1 X293.0 Y311.5 F2000
G1 X293.5 Y312.0 F2000
G1 X294.0 Y312.0 F2000
G1 X294.5 Y312.5 F2000
G1 X295.0 Y312.5 F2000
G1 X295.5 Y313.0 F2000
G1 X296.0 Y313.0 F2000
G1 X296.5 Y313.5 F2000
G1 X297.5 Y313.5 F2000
G1 X298.5 Y314.5 F2000
G1 X299.5 Y314.5 F2000
G1 X300.0 Y315.0 F2000
G1 X300.5 Y315.0 F2000
G1 X301.0 Y315.5 F2000
G1 X301.5 Y315.5 F2000
G1 X302.0 Y316.0 F2000
G1 X302.5 Y316.0 F2000
G1 X303.0 Y316.5 F2000
G1 X303.5 Y316.5 F2000
G1 X304.0 Y317.0 F2000
G1 X305.0 Y317.0 F2000
G1 X306.0 Y318.0 F2000
G1 X306.5 Y318.0 F2000
G1 X308.0 Y319.5 F2000
G1 X308.0 Y319.0 F2000
G1 X307.0 Y318.0 F2000
G1 X306.5 Y318.0 F2000
G1 X305.5 Y317.0 F2000
G1 X304.5 Y317.0 F2000
G1 X304.0 Y316.5 F2000
G1 X303.5 Y316.5 F2000
G1 X303.0 Y316.0 F2000
G1 X302.5 Y316.0 F2000
G1 X302.0 Y315.5 F2000
G1 X301.0 Y315.5 F2000
G1 X300.5 Y315.0 F2000
G1 X300.0 Y315.0 F2000
G1 X299.5 Y314.5 F2000
G1 X299.0 Y314.5 F2000
G1 X298.5 Y314.0 F2000
G1 X298.0 Y314.0 F2000
G1 X297.5 Y313.5 F2000
G1 X297.0 Y313.5 F2000
G1 X296.5 Y313.0 F2000
G1 X296.0 Y313.0 F2000
G1 X295.5 Y312.5 F2000
G1 X294.5 Y312.5 F2000
G1 X294.0 Y312.0 F2000
G1 X293.5 Y312.0 F2000
G1 X292.5 Y311.0 F2000
G1 X292.0 Y311.0 F2000
G1 X291.0 Y310.0 F2000
G1 X290.5 Y310.0 F2000
G1 X290.0 Y309.5 F2000
G1 X289.5 Y309.5 F2000
G1 X289.0 Y309.0 F2000
G1 X288.0 Y309.0 F2000
G1 X287.5 Y308.5 F2000
G1 X286.5 Y308.5 F2000
G1 X286.0 Y308.0 F2000
G1 X284.0 Y308.0 F2000
G1 X283.5 Y307.5 F2000
G1 X281.0 Y307.5 F2000
G1 X280.5 Y307.0 F2000
G1 X279.5 Y307.0 F2000
G1 X279.0 Y306.5 F2000
G1 X272.0 Y306.5 F2000
G1 X271.5 Y306.0 F2000
G1 X267.5 Y306.0 F2000
G1 Z5.0 F3000 ; Lift pen

; Contour 4 with 36 points
G0 X72.5 Y304.5 F3000 ; Move to start
G1 Z-2.0 F1000 ; Lower pen
G1 X72.5 Y306.5 F2000
G1 X72.0 Y307.0 F2000
G1 X72.0 Y309.0 F2000
G1 X71.5 Y309.5 F2000
G1 X71.5 Y312.0 F2000
G1 X71.0 Y312.5 F2000
G1 X71.0 Y316.0 F2000
G1 X70.5 Y316.5 F2000
G1 X70.5 Y319.5 F2000
G1 X70.5 Y316.5 F2000
G1 X71.0 Y316.0 F2000
G1 X71.0 Y312.5 F2000
G1 X71.5 Y312.0 F2000
G1 X71.5 Y309.5 F2000
G1 X72.0 Y309.0 F2000
G1 X72.0 Y307.0 F2000
G1 X72.5 Y306.5 F2000
G1 X72.5 Y305.0 F2000
G1 X73.0 Y304.5 F2000
G1 X73.5 Y304.5 F2000
G1 X74.0 Y305.0 F2000
G1 X74.0 Y312.5 F2000
G1 X74.5 Y313.0 F2000
G1 X74.5 Y314.5 F2000
G1 X74.0 Y315.0 F2000
G1 X74.0 Y317.0 F2000
G1 X73.5 Y317.5 F2000
G1 X73.5 Y319.5 F2000
G1 X73.5 Y317.5 F2000
G1 X74.0 Y317.0 F2000
G1 X74.0 Y315.0 F2000
G1 X74.5 Y314.5 F2000
G1 X74.5 Y313.0 F2000
G1 X74.0 Y312.5 F2000
G1 X74.0 Y304.5 F2000
; Closing contour 4
G1 X72.5 Y304.5 F2000
G1 Z5.0 F3000 ; Lift pen

; Contour 5 with 8 points
G0 X278.5 Y302.5 F3000 ; Move to start
G1 Z-2.0 F1000 ; Lower pen
G1 X278.0 Y303.0 F2000
G1 X278.0 Y303.5 F2000
G1 X276.5 Y305.0 F2000
G1 X277.0 Y305.0 F2000
G1 X278.0 Y304.0 F2000
G1 X278.0 Y303.5 F2000
G1 X278.5 Y303.0 F2000
G1 Z5.0 F3000 ; Lift pen

; Contour 6 with 240 points
G0 X256.0 Y301.5 F3000 ; Move to start
G1 Z-2.0 F1000 ; Lower pen
G1 X255.5 Y302.0 F2000
G1 X253.5 Y302.0 F2000
G1 X253.0 Y302.5 F2000
G1 X252.0 Y302.5 F2000
G1 X251.5 Y303.0 F2000
G1 X250.5 Y303.0 F2000
G1 X250.0 Y303.5 F2000
G1 X249.0 Y303.5 F2000
G1 X248.5 Y304.0 F2000
G1 X247.0 Y304.0 F2000
G1 X246.5 Y304.5 F2000
G1 X245.0 Y304.5 F2000
G1 X244.5 Y305.0 F2000
G1 X244.0 Y305.0 F2000
G1 X243.5 Y305.5 F2000
G1 X243.0 Y305.5 F2000
G1 X242.5 Y306.0 F2000
G1 X241.5 Y306.0 F2000
G1 X241.0 Y306.5 F2000
G1 X240.5 Y306.5 F2000
G1 X239.5 Y307.5 F2000
G1 X238.5 Y307.5 F2000
G1 X238.0 Y308.0 F2000
G1 X237.0 Y308.0 F2000
G1 X236.0 Y309.0 F2000
G1 X235.0 Y309.0 F2000
G1 X234.5 Y309.5 F2000
G1 X234.0 Y309.5 F2000
G1 X233.5 Y310.0 F2000
G1 X233.0 Y310.0 F2000
G1 X232.5 Y310.5 F2000
G1 X232.0 Y310.5 F2000
G1 X231.5 Y311.0 F2000
G1 X231.0 Y311.0 F2000
G1 X230.5 Y311.5 F2000
G1 X230.0 Y311.5 F2000
G1 X229.5 Y312.0 F2000
G1 X229.0 Y312.0 F2000
G1 X228.5 Y312.5 F2000
G1 X228.0 Y312.5 F2000
G1 X227.5 Y313.0 F2000
G1 X227.0 Y313.0 F2000
G1 X226.5 Y313.5 F2000
G1 X226.0 Y313.5 F2000
G1 X225.5 Y314.0 F2000
G1 X225.0 Y314.0 F2000
G1 X224.5 Y314.5 F2000
G1 X224.0 Y314.5 F2000
G1 X223.5 Y315.0 F2000
G1 X223.0 Y315.0 F2000
G1 X222.0 Y316.0 F2000
G1 X221.5 Y316.0 F2000
G1 X221.0 Y316.5 F2000
G1 X220.0 Y316.5 F2000
G1 X219.0 Y317.5 F2000
G1 X218.5 Y317.5 F2000
G1 X217.5 Y318.5 F2000
G1 X217.0 Y318.5 F2000
G1 X216.5 Y319.0 F2000
G1 X216.0 Y319.0 F2000
G1 X216.0 Y319.5 F2000
G1 X216.5 Y319.0 F2000
G1 X217.0 Y319.0 F2000
G1 X217.5 Y318.5 F2000
G1 X218.0 Y318.5 F2000
G1 X219.5 Y317.0 F2000
G1 X220.0 Y317.0 F2000
G1 X220.5 Y316.5 F2000
G1 X221.0 Y316.5 F2000
G1 X221.5 Y316.0 F2000
G1 X222.0 Y316.0 F2000
G1 X222.5 Y315.5 F2000
G1 X223.0 Y315.5 F2000
G1 X223.5 Y315.0 F2000
G1 X224.0 Y315.0 F2000
G1 X224.5 Y314.5 F2000
G1 X225.0 Y314.5 F2000
G1 X225.5 Y314.0 F2000
G1 X226.0 Y314.0 F2000
G1 X227.0 Y313.0 F2000
G1 X227.5 Y313.0 F2000
G1 X228.0 Y312.5 F2000
G1 X229.0 Y312.5 F2000
G1 X230.0 Y311.5 F2000
G1 X230.5 Y311.5 F2000
G1 X231.0 Y311.0 F2000
G1 X232.0 Y311.0 F2000
G1 X232.5 Y310.5 F2000
G1 X233.0 Y310.5 F2000
G1 X233.5 Y310.0 F2000
G1 X234.0 Y310.0 F2000
G1 X234.5 Y309.5 F2000
G1 X235.0 Y309.5 F2000
G1 X235.5 Y309.0 F2000
G1 X236.5 Y309.0 F2000
G1 X237.5 Y308.0 F2000
G1 X238.5 Y308.0 F2000
G1 X239.0 Y307.5 F2000
G1 X239.5 Y307.5 F2000
G1 X240.0 Y307.0 F2000
G1 X240.5 Y307.0 F2000
G1 X241.0 Y306.5 F2000
G1 X241.5 Y306.5 F2000
G1 X242.0 Y306.0 F2000
G1 X242.5 Y306.0 F2000
G1 X243.0 Y305.5 F2000
G1 X244.0 Y305.5 F2000
G1 X244.5 Y305.0 F2000
G1 X245.0 Y305.0 F2000
G1 X245.5 Y304.5 F2000
G1 X246.5 Y304.5 F2000
G1 X247.0 Y304.0 F2000
G1 X248.5 Y304.0 F2000
G1 X249.0 Y303.5 F2000
G1 X250.0 Y303.5 F2000
G1 X250.5 Y303.0 F2000
G1 X251.5 Y303.0 F2000
G1 X252.0 Y302.5 F2000
G1 X253.0 Y302.5 F2000
G1 X253.5 Y302.0 F2000
G1 X255.5 Y302.0 F2000
G1 X256.0 Y301.5 F2000
G1 X262.5 Y301.5 F2000
G1 X263.0 Y302.0 F2000
G1 X267.0 Y302.0 F2000
G1 X267.5 Y302.5 F2000
G1 X268.0 Y302.5 F2000
G1 X268.5 Y303.0 F2000
G1 X268.0 Y303.5 F2000
G1 X256.0 Y303.5 F2000
G1 X255.5 Y304.0 F2000
G1 X253.5 Y304.0 F2000
G1 X253.0 Y304.5 F2000
G1 X252.5 Y304.5 F2000
G1 X252.0 Y305.0 F2000
G1 X250.0 Y305.0 F2000
G1 X249.5 Y305.5 F2000
G1 X248.5 Y305.5 F2000
G1 X248.0 Y306.0 F2000
G1 X246.5 Y306.0 F2000
G1 X246.0 Y306.5 F2000
G1 X245.5 Y306.5 F2000
G1 X245.0 Y307.0 F2000
G1 X244.0 Y307.0 F2000
G1 X243.5 Y307.5 F2000
G1 X242.5 Y307.5 F2000
G1 X242.0 Y308.0 F2000
G1 X241.5 Y308.0 F2000
G1 X240.5 Y309.0 F2000
G1 X240.0 Y309.0 F2000
G1 X239.5 Y309.5 F2000
G1 X238.5 Y309.5 F2000
G1 X238.0 Y310.0 F2000
G1 X237.0 Y310.0 F2000
G1 X236.5 Y310.5 F2000
G1 X236.0 Y310.5 F2000
G1 X235.5 Y311.0 F2000
G1 X234.5 Y311.0 F2000
G1 X234.0 Y311.5 F2000
G1 X233.5 Y311.5 F2000
G1 X233.0 Y312.0 F2000
G1 X232.5 Y312.0 F2000
G1 X232.0 Y312.5 F2000
G1 X231.5 Y312.5 F2000
G1 X231.0 Y313.0 F2000
G1 X230.5 Y313.0 F2000
G1 X230.0 Y313.5 F2000
G1 X229.0 Y313.5 F2000
G1 X228.5 Y314.0 F2000
G1 X228.0 Y314.0 F2000
G1 X227.5 Y314.5 F2000
G1 X227.0 Y314.5 F2000
G1 X226.5 Y315.0 F2000
G1 X226.0 Y315.0 F2000
G1 X225.0 Y316.0 F2000
G1 X224.0 Y316.0 F2000
G1 X223.0 Y317.0 F2000
G1 X222.5 Y317.0 F2000
G1 X221.5 Y318.0 F2000
G1 X221.0 Y318.0 F2000
G1 X220.0 Y319.0 F2000
G1 X220.5 Y318.5 F2000
G1 X221.0 Y318.5 F2000
G1 X221.5 Y318.0 F2000
G1 X222.0 Y318.0 F2000
G1 X223.5 Y316.5 F2000
G1 X224.0 Y316.5 F2000
G1 X224.5 Y316.0 F2000
G1 X225.5 Y316.0 F2000
G1 X226.5 Y315.0 F2000
G1 X227.0 Y315.0 F2000
G1 X228.0 Y314.0 F2000
G1 X228.5 Y314.0 F2000
G1 X229.0 Y313.5 F2000
G1 X230.0 Y313.5 F2000
G1 X230.5 Y313.0 F2000
G1 X231.5 Y313.0 F2000
G1 X232.5 Y312.0 F2000
G1 X233.5 Y312.0 F2000
G1 X234.0 Y311.5 F2000
G1 X234.5 Y311.5 F2000
G1 X235.0 Y311.0 F2000
G1 X235.5 Y311.0 F2000
G1 X236.0 Y310.5 F2000
G1 X237.0 Y310.5 F2000
G1 X237.5 Y310.0 F2000
G1 X238.0 Y310.0 F2000
G1 X238.5 Y309.5 F2000
G1 X239.5 Y309.5 F2000
G1 X240.0 Y309.0 F2000
G1 X240.5 Y309.0 F2000
G1 X241.0 Y308.5 F2000
G1 X241.5 Y308.5 F2000
G1 X242.0 Y308.0 F2000
G1 X242.5 Y308.0 F2000
G1 X243.0 Y307.5 F2000
G1 X243.5 Y307.5 F2000
G1 X244.0 Y307.0 F2000
G1 X245.5 Y307.0 F2000
G1 X246.5 Y306.0 F2000
G1 X248.0 Y306.0 F2000
G1 X248.5 Y305.5 F2000
G1 X249.5 Y305.5 F2000
G1 X250.0 Y305.0 F2000
G1 X252.0 Y305.0 F2000
G1 X252.5 Y304.5 F2000
G1 X253.0 Y304.5 F2000
G1 X253.5 Y304.0 F2000
G1 X255.5 Y304.0 F2000
G1 X256.0 Y303.5 F2000
G1 X260.0 Y303.5 F2000
G1 X260.5 Y304.0 F2000
G1 X261.0 Y303.5 F2000
G1 X268.5 Y303.5 F2000
G1 X268.5 Y302.5 F2000
G1 X268.0 Y302.5 F2000
G1 X267.5 Y302.0 F2000
G1 X263.0 Y302.0 F2000
G1 X262.5 Y301.5 F2000
; Closing contour 6
G1 X256.0 Y301.5 F2000
G1 Z5.0 F3000 ; Lift pen

; Contour 7 with 19 points
G0 X276.5 Y300.0 F3000 ; Move to start
G1 Z-2.0 F1000 ; Lower pen
G1 X276.5 Y302.0 F2000
G1 X275.0 Y303.5 F2000
G1 X274.5 Y303.0 F2000
G1 X273.0 Y303.0 F2000
G1 X272.5 Y303.5 F2000
G1 X272.0 Y303.5 F2000
G1 X271.0 Y304.5 F2000
G1 X271.0 Y305.0 F2000
G1 X273.0 Y303.0 F2000
G1 X274.5 Y303.0 F2000
G1 X275.0 Y303.5 F2000
G1 X275.5 Y303.5 F2000
G1 X276.5 Y302.5 F2000
G1 X276.5 Y302.0 F2000
G1 X277.0 Y301.5 F2000
G1 X276.5 Y301.0 F2000
G1 X277.0 Y300.5 F2000
G1 X277.0 Y300.0 F2000
G1 Z5.0 F3000 ; Lift pen

; Contour 8 with 14 points
G0 X68.0 Y298.5 F3000 ; Move to start
G1 Z-2.0 F1000 ; Lower pen
G1 X67.5 Y299.0 F2000
G1 X67.0 Y299.0 F2000
G1 X66.5 Y299.5 F2000
G1 X66.5 Y300.0 F2000
G1 X68.0 Y298.5 F2000
G1 X69.5 Y298.5 F2000
G1 X70.5 Y299.5 F2000
G1 X71.0 Y299.5 F2000
G1 X72.5 Y301.0 F2000
G1 X72.5 Y300.5 F2000
G1 X71.5 Y299.5 F2000
G1 X71.0 Y299.5 F2000
G1 X70.0 Y298.5 F2000
; Closing contour 8
G1 X68.0 Y298.5 F2000
G1 Z5.0 F3000 ; Lift pen

; Contour 9 with 68 points
G0 X301.5 Y297.0 F3000 ; Move to start
G1 Z-2.0 F1000 ; Lower pen
G1 X301.0 Y297.5 F2000
G1 X301.0 Y299.0 F2000
G1 X302.5 Y300.5 F2000
G1 X302.0 Y300.0 F2000
G1 X302.0 Y299.5 F2000
G1 X302.5 Y299.0 F2000
G1 X303.0 Y299.0 F2000
G1 X303.5 Y298.5 F2000
G1 X303.0 Y298.5 F2000
G1 X302.0 Y299.5 F2000
G1 X301.0 Y298.5 F2000
G1 X301.0 Y298.0 F2000
G1 X302.0 Y297.0 F2000
G1 X303.0 Y297.0 F2000
G1 X303.5 Y297.5 F2000
G1 X304.0 Y297.5 F2000
G1 X304.5 Y298.0 F2000
G1 X305.0 Y298.0 F2000
G1 X305.5 Y298.5 F2000
G1 X306.0 Y298.5 F2000
G1 X308.0 Y300.5 F2000
G1 X308.0 Y301.0 F2000
G1 X308.5 Y301.5 F2000
G1 X308.5 Y303.0 F2000
G1 X309.0 Y303.5 F2000
G1 X309.0 Y304.0 F2000
G1 X309.5 Y304.5 F2000
G1 X309.0 Y305.0 F2000
G1 X309.0 Y306.0 F2000
G1 X307.5 Y307.5 F2000
G1 X306.5 Y307.5 F2000
G1 X306.0 Y308.0 F2000
G1 X305.5 Y308.0 F2000
G1 X305.0 Y308.5 F2000
G1 X304.5 Y308.5 F2000
G1 X304.5 Y309.0 F2000
G1 X303.5 Y310.0 F2000
G1 X302.5 Y309.0 F2000
G1 X302.5 Y308.5 F2000
G1 X301.5 Y308.5 F2000
G1 X302.0 Y308.5 F2000
G1 X302.5 Y309.0 F2000
G1 X302.5 Y309.5 F2000
G1 X303.0 Y309.5 F2000
G1 X303.5 Y310.0 F2000
G1 X304.0 Y309.5 F2000
G1 X304.5 Y309.5 F2000
G1 X304.5 Y309.0 F2000
G1 X305.5 Y308.0 F2000
G1 X306.0 Y308.0 F2000
G1 X306.5 Y307.5 F2000
G1 X308.0 Y307.5 F2000
G1 X309.0 Y306.5 F2000
G1 X309.0 Y305.0 F2000
G1 X309.5 Y304.5 F2000
G1 X309.0 Y304.0 F2000
G1 X309.0 Y303.5 F2000
G1 X308.5 Y303.0 F2000
G1 X308.5 Y302.0 F2000
G1 X309.0 Y301.5 F2000
G1 X308.0 Y300.5 F2000
G1 X308.0 Y300.0 F2000
G1 X306.5 Y298.5 F2000
G1 X305.5 Y298.5 F2000
G1 X304.5 Y297.5 F2000
G1 X304.0 Y297.5 F2000
G1 X303.5 Y297.0 F2000
; Closing contour 9
G1 X301.5 Y297.0 F2000
G1 Z5.0 F3000 ; Lift pen

; Contour 10 with 23 points
G0 X290.5 Y295.5 F3000 ; Move to start
G1 Z-2.0 F1000 ; Lower pen
G1 X290.0 Y296.0 F2000
G1 X289.0 Y296.0 F2000
G1 X288.5 Y296.5 F2000
G1 X288.0 Y296.5 F2000
G1 X288.5 Y296.5 F2000
G1 X289.0 Y297.0 F2000
G1 X289.0 Y296.5 F2000
G1 X289.5 Y296.0 F2000
G1 X290.0 Y296.0 F2000
G1 X290.5 Y295.5 F2000
G1 X292.5 Y295.5 F2000
G1 X293.0 Y296.0 F2000
G1 X291.5 Y297.5 F2000
G1 X290.5 Y297.5 F2000
G1 X290.5 Y298.0 F2000
G1 X291.0 Y298.0 F2000
G1 X291.5 Y297.5 F2000
G1 X292.0 Y297.5 F2000
G1 X292.5 Y297.0 F2000
G1 X292.5 Y296.5 F2000
G1 X293.0 Y296.0 F2000
G1 X293.0 Y295.5 F2000
; Closing contour 10
G1 X290.5 Y295.5 F2000
G1 Z5.0 F3000 ; Lift pen

; Contour 11 with 42 points
G0 X0.5 Y293.5 F3000 ; Move to start
G1 Z-2.0 F1000 ; Lower pen
G1 X0.0 Y294.0 F2000
G1 X1.0 Y295.0 F2000
G1 X1.0 Y295.5 F2000
G1 X1.5 Y296.0 F2000
G1 X1.5 Y296.5 F2000
G1 X2.5 Y297.5 F2000
G1 X2.5 Y298.0 F2000
G1 X3.5 Y299.0 F2000
G1 X3.5 Y299.5 F2000
G1 X4.0 Y300.0 F2000
G1 X4.0 Y300.5 F2000
G1 X4.5 Y301.0 F2000
G1 X4.5 Y301.5 F2000
