; Generated by Image to G-Code Converter
; Created on 2025-11-12 00:04:22
G21 ; Set units to millimeters
G90 ; Use absolute positioning

; Initial positioning
G1 Z5.0 F1000 ; Pen up
G0 X10 Y10 F3000 ; Move to safe starting position

; Contour 1 with 6 points
G0 X344.0 Y359.0 F3000 ; Move to start
G1 Z-2.0 F1000 ; Lower pen
G1 X344.0 Y359.5 F2000
G1 X344.5 Y359.0 F2000
G1 X345.5 Y359.0 F2000
G1 X346.0 Y359.5 F2000
G1 X345.5 Y359.0 F2000
; Closing contour 1
G1 X344.0 Y359.0 F2000
G1 Z5.0 F3000 ; Lift pen

; Contour 3 with 5 points
G0 X355.5 Y358.5 F3000 ; Move to start
G1 Z-2.0 F1000 ; Lower pen
G1 X356.0 Y358.5 F2000
G1 X357.0 Y359.5 F2000
G1 X357.0 Y359.0 F2000
G1 X356.5 Y358.5 F2000
G1 Z5.0 F3000 ; Lift pen

; Contour 4 with 8 points
G0 X280.5 Y358.5 F3000 ; Move to start
G1 Z-2.0 F1000 ; Lower pen
G1 X281.0 Y358.5 F2000
G1 X281.5 Y359.0 F2000
G1 X281.5 Y359.5 F2000
G1 X281.5 Y359.0 F2000
G1 X282.0 Y358.5 F2000
G1 X282.5 Y359.0 F2000
G1 X282.5 Y358.5 F2000
; Closing contour 4
G1 X280.5 Y358.5 F2000
G1 Z5.0 F3000 ; Lift pen

; Contour 5 with 4 points
G0 X225.0 Y358.5 F3000 ; Move to start
G1 Z-2.0 F1000 ; Lower pen
G1 X224.5 Y359.0 F2000
G1 X224.5 Y359.5 F2000
G1 X224.5 Y359.0 F2000
G1 Z5.0 F3000 ; Lift pen

; Contour 6 with 8 points
G0 X216.5 Y358.5 F3000 ; Move to start
G1 Z-2.0 F1000 ; Lower pen
G1 X216.0 Y359.0 F2000
G1 X216.0 Y359.5 F2000
G1 X216.5 Y359.0 F2000
G1 X217.0 Y359.0 F2000
G1 X217.5 Y359.5 F2000
G1 X217.5 Y359.0 F2000
G1 X217.0 Y358.5 F2000
G1 Z5.0 F3000 ; Lift pen

; Contour 7 with 4 points
G0 X313.0 Y358.0 F3000 ; Move to start
G1 Z-2.0 F1000 ; Lower pen
G1 X313.0 Y359.0 F2000
G1 X312.5 Y359.5 F2000
G1 X313.0 Y359.0 F2000
G1 Z5.0 F3000 ; Lift pen

; Contour 8 with 11 points
G0 X307.5 Y358.0 F3000 ; Move to start
G1 Z-2.0 F1000 ; Lower pen
G1 X307.5 Y358.5 F2000
G1 X307.0 Y359.0 F2000
G1 X307.0 Y359.5 F2000
G1 X307.0 Y359.0 F2000
G1 X308.0 Y358.0 F2000
G1 X308.5 Y358.5 F2000
G1 X308.5 Y359.0 F2000
G1 X308.0 Y359.5 F2000
G1 X308.5 Y359.0 F2000
G1 X308.5 Y358.0 F2000
G1 Z5.0 F3000 ; Lift pen

; Contour 9 with 11 points
G0 X277.5 Y358.0 F3000 ; Move to start
G1 Z-2.0 F1000 ; Lower pen
G1 X276.5 Y359.0 F2000
G1 X276.5 Y359.5 F2000
G1 X276.5 Y359.0 F2000
G1 X277.0 Y358.5 F2000
G1 X277.5 Y359.0 F2000
G1 X277.5 Y359.5 F2000
G1 X277.5 Y358.5 F2000
G1 X278.0 Y358.0 F2000
G1 X278.5 Y358.5 F2000
G1 X278.5 Y358.0 F2000
G1 Z5.0 F3000 ; Lift pen

; Contour 10 with 8 points
G0 X261.0 Y357.5 F3000 ; Move to start
G1 Z-2.0 F1000 ; Lower pen
G1 X261.5 Y357.5 F2000
G1 X262.0 Y358.0 F2000
G1 X261.5 Y358.5 F2000
G1 X261.5 Y359.5 F2000
G1 X261.5 Y359.0 F2000
G1 X262.0 Y358.5 F2000
G1 X262.0 Y357.5 F2000
G1 Z5.0 F3000 ; Lift pen

; Contour 11 with 8 points
G0 X145.0 Y357.5 F3000 ; Move to start
G1 Z-2.0 F1000 ; Lower pen
G1 X145.5 Y358.0 F2000
G1 X145.5 Y358.5 F2000
G1 X146.0 Y359.0 F2000
G1 X146.0 Y359.5 F2000
G1 X146.0 Y358.5 F2000
G1 X145.5 Y358.0 F2000
G1 X145.5 Y357.5 F2000
G1 Z5.0 F3000 ; Lift pen

; Contour 12 with 7 points
G0 X354.5 Y357.0 F3000 ; Move to start
G1 Z-2.0 F1000 ; Lower pen
G1 X354.0 Y357.5 F2000
G1 X354.0 Y359.0 F2000
G1 X353.5 Y359.5 F2000
G1 X354.0 Y359.0 F2000
G1 X354.0 Y358.0 F2000
G1 X355.0 Y357.0 F2000
G1 Z5.0 F3000 ; Lift pen

; Contour 13 with 12 points
G0 X210.0 Y357.0 F3000 ; Move to start
G1 Z-2.0 F1000 ; Lower pen
G1 X210.5 Y357.5 F2000
G1 X210.5 Y358.5 F2000
G1 X210.0 Y359.0 F2000
G1 X210.0 Y359.5 F2000
G1 X210.5 Y359.0 F2000
G1 X211.0 Y359.0 F2000
G1 X211.5 Y359.5 F2000
G1 X211.5 Y359.0 F2000
G1 X211.0 Y359.0 F2000
G1 X210.5 Y358.5 F2000
G1 X210.5 Y357.5 F2000
G1 Z5.0 F3000 ; Lift pen

; Contour 14 with 24 points
G0 X190.0 Y357.0 F3000 ; Move to start
G1 Z-2.0 F1000 ; Lower pen
G1 X190.0 Y358.0 F2000
G1 X189.5 Y358.5 F2000
G1 X188.0 Y358.5 F2000
G1 X188.0 Y359.5 F2000
G1 X188.0 Y359.0 F2000
G1 X188.5 Y358.5 F2000
G1 X189.0 Y358.5 F2000
G1 X189.5 Y359.0 F2000
G1 X189.5 Y359.5 F2000
G1 X189.5 Y359.0 F2000
G1 X190.0 Y358.5 F2000
G1 X190.0 Y357.5 F2000
G1 X190.5 Y357.0 F2000
G1 X191.5 Y357.0 F2000
G1 X192.5 Y358.0 F2000
G1 X191.0 Y359.5 F2000
G1 X191.5 Y359.5 F2000
G1 X191.5 Y359.0 F2000
G1 X192.0 Y358.5 F2000
G1 X192.5 Y358.5 F2000
G1 X192.5 Y357.5 F2000
G1 X192.0 Y357.5 F2000
G1 X191.5 Y357.0 F2000
; Closing contour 14
G1 X190.0 Y357.0 F2000
G1 Z5.0 F3000 ; Lift pen

; Contour 15 with 12 points
G0 X288.0 Y356.5 F3000 ; Move to start
G1 Z-2.0 F1000 ; Lower pen
G1 X288.5 Y357.0 F2000
G1 X288.0 Y357.5 F2000
G1 X287.0 Y357.5 F2000
G1 X286.5 Y358.0 F2000
G1 X286.5 Y358.5 F2000
G1 X286.0 Y359.0 F2000
G1 X286.0 Y359.5 F2000
G1 X286.0 Y359.0 F2000
G1 X287.5 Y357.5 F2000
G1 X288.5 Y357.5 F2000
G1 X288.5 Y357.0 F2000
G1 Z5.0 F3000 ; Lift pen

; Contour 16 with 10 points
G0 X209.0 Y356.5 F3000 ; Move to start
G1 Z-2.0 F1000 ; Lower pen
G1 X209.0 Y357.0 F2000
G1 X208.5 Y357.5 F2000
G1 X209.0 Y358.0 F2000
G1 X208.5 Y358.5 F2000
G1 X208.0 Y358.5 F2000
G1 X208.5 Y359.0 F2000
G1 X208.5 Y359.5 F2000
G1 X208.5 Y359.0 F2000
G1 X209.0 Y358.5 F2000
; Closing contour 16
G1 X209.0 Y356.5 F2000
G1 Z5.0 F3000 ; Lift pen

; Contour 17 with 6 points
G0 X355.5 Y356.0 F3000 ; Move to start
G1 Z-2.0 F1000 ; Lower pen
G1 X356.5 Y357.0 F2000
G1 X356.0 Y357.5 F2000
G1 X356.5 Y357.0 F2000
G1 X356.0 Y356.5 F2000
G1 X356.0 Y356.0 F2000
G1 Z5.0 F3000 ; Lift pen

; Contour 18 with 16 points
G0 X344.0 Y356.0 F3000 ; Move to start
G1 Z-2.0 F1000 ; Lower pen
G1 X343.5 Y356.5 F2000
G1 X343.5 Y357.0 F2000
G1 X343.0 Y357.5 F2000
G1 X343.0 Y358.0 F2000
G1 X342.5 Y358.5 F2000
G1 X342.5 Y359.5 F2000
G1 X342.5 Y359.0 F2000
G1 X343.0 Y358.5 F2000
G1 X343.0 Y358.0 F2000
G1 X343.5 Y357.5 F2000
G1 X343.5 Y357.0 F2000
G1 X344.0 Y356.5 F2000
G1 X344.5 Y356.5 F2000
G1 X345.0 Y356.0 F2000
G1 X344.5 Y356.5 F2000
G1 Z5.0 F3000 ; Lift pen

; Contour 19 with 28 points
G0 X300.0 Y356.0 F3000 ; Move to start
G1 Z-2.0 F1000 ; Lower pen
G1 X300.0 Y356.5 F2000
G1 X299.0 Y357.5 F2000
G1 X299.0 Y358.0 F2000
G1 X298.0 Y359.0 F2000
G1 X297.5 Y358.5 F2000
G1 X297.0 Y359.0 F2000
G1 X296.5 Y358.5 F2000
G1 X296.5 Y358.0 F2000
G1 X296.0 Y358.0 F2000
G1 X295.5 Y358.5 F2000
G1 X295.5 Y359.5 F2000
G1 X295.5 Y358.5 F2000
G1 X296.0 Y358.0 F2000
G1 X297.0 Y359.0 F2000
G1 X296.5 Y359.5 F2000
G1 X297.5 Y358.5 F2000
G1 X298.0 Y359.0 F2000
G1 X298.0 Y359.5 F2000
G1 X298.0 Y359.0 F2000
G1 X298.5 Y358.5 F2000
G1 X299.5 Y358.5 F2000
G1 X300.0 Y359.0 F2000
G1 X300.5 Y358.5 F2000
G1 X300.5 Y358.0 F2000
G1 X301.0 Y357.5 F2000
G1 X301.0 Y356.5 F2000
G1 X300.5 Y356.0 F2000
G1 Z5.0 F3000 ; Lift pen

; Contour 21 with 18 points
G0 X329.5 Y355.5 F3000 ; Move to start
G1 Z-2.0 F1000 ; Lower pen
G1 X329.5 Y356.0 F2000
G1 X330.0 Y356.5 F2000
G1 X329.5 Y357.0 F2000
G1 X329.0 Y357.0 F2000
G1 X328.0 Y356.0 F2000
G1 X327.5 Y356.5 F2000
G1 X327.5 Y358.0 F2000
G1 X328.5 Y359.0 F2000
G1 X328.5 Y358.5 F2000
G1 X327.5 Y357.5 F2000
G1 X327.5 Y357.0 F2000
G1 X328.0 Y356.5 F2000
G1 X328.5 Y357.0 F2000
G1 X329.0 Y357.0 F2000
G1 X329.5 Y357.5 F2000
G1 X330.0 Y357.0 F2000
G1 X330.0 Y356.0 F2000
G1 Z5.0 F3000 ; Lift pen

; Contour 22 with 19 points
G0 X315.5 Y355.5 F3000 ; Move to start
G1 Z-2.0 F1000 ; Lower pen
G1 X315.5 Y356.0 F2000
G1 X316.0 Y356.5 F2000
G1 X315.5 Y357.0 F2000
G1 X315.5 Y358.0 F2000
G1 X315.0 Y358.5 F2000
G1 X314.0 Y358.5 F2000
G1 X315.0 Y358.5 F2000
G1 X315.5 Y359.0 F2000
G1 X315.5 Y359.5 F2000
G1 X315.5 Y359.0 F2000
G1 X316.0 Y358.5 F2000
G1 X316.5 Y359.0 F2000
G1 X315.5 Y358.0 F2000
G1 X315.5 Y357.0 F2000
G1 X316.0 Y356.5 F2000
G1 X317.0 Y357.5 F2000
G1 X316.0 Y356.5 F2000
G1 X316.0 Y356.0 F2000
G1 Z5.0 F3000 ; Lift pen

; Contour 23 with 8 points
G0 X196.0 Y355.5 F3000 ; Move to start
G1 Z-2.0 F1000 ; Lower pen
G1 X197.0 Y355.5 F2000
G1 X197.5 Y356.0 F2000
G1 X197.5 Y356.5 F2000
G1 X198.0 Y357.0 F2000
G1 X198.5 Y357.0 F2000
G1 X197.5 Y356.0 F2000
G1 X197.5 Y355.5 F2000
; Closing contour 23
G1 X196.0 Y355.5 F2000
G1 Z5.0 F3000 ; Lift pen

; Contour 24 with 11 points
G0 X121.0 Y355.5 F3000 ; Move to start
G1 Z-2.0 F1000 ; Lower pen
G1 X121.0 Y357.0 F2000
G1 X122.0 Y358.0 F2000
G1 X121.5 Y358.5 F2000
G1 X122.5 Y357.5 F2000
G1 X122.0 Y358.0 F2000
G1 X121.5 Y357.5 F2000
G1 X121.5 Y357.0 F2000
G1 X121.0 Y356.5 F2000
G1 X121.0 Y356.0 F2000
G1 X121.5 Y355.5 F2000
G1 Z5.0 F3000 ; Lift pen

; Contour 25 with 25 points
G0 X326.0 Y355.0 F3000 ; Move to start
G1 Z-2.0 F1000 ; Lower pen
G1 X326.0 Y355.5 F2000
G1 X325.5 Y356.0 F2000
G1 X325.5 Y356.5 F2000
G1 X323.0 Y359.0 F2000
G1 X322.5 Y359.0 F2000
G1 X323.0 Y359.5 F2000
G1 X324.0 Y358.5 F2000
G1 X325.0 Y359.5 F2000
G1 X326.0 Y358.5 F2000
G1 X326.5 Y359.0 F2000
G1 X326.5 Y359.5 F2000
G1 X327.0 Y359.0 F2000
G1 X326.5 Y359.0 F2000
G1 X326.0 Y358.5 F2000
G1 X325.5 Y358.5 F2000
G1 X325.5 Y359.0 F2000
G1 X325.0 Y359.5 F2000
G1 X324.0 Y358.5 F2000
G1 X324.0 Y358.0 F2000
G1 X324.5 Y357.5 F2000
G1 X325.0 Y357.5 F2000
G1 X325.5 Y357.0 F2000
G1 X325.5 Y356.0 F2000
G1 X326.5 Y355.0 F2000
G1 Z5.0 F3000 ; Lift pen

; Contour 26 with 6 points
G0 X226.5 Y355.0 F3000 ; Move to start
G1 Z-2.0 F1000 ; Lower pen
G1 X226.0 Y355.5 F2000
G1 X226.0 Y356.0 F2000
G1 X226.0 Y355.5 F2000
G1 X226.5 Y355.0 F2000
G1 X227.0 Y355.5 F2000
G1 Z5.0 F3000 ; Lift pen

; Contour 27 with 52 points
G0 X220.0 Y355.0 F3000 ; Move to start
G1 Z-2.0 F1000 ; Lower pen
G1 X219.5 Y355.5 F2000
G1 X219.5 Y358.0 F2000
G1 X218.5 Y359.0 F2000
G1 X218.5 Y359.5 F2000
G1 X219.0 Y359.0 F2000
G1 X220.0 Y359.0 F2000
G1 X220.5 Y359.5 F2000
G1 X221.0 Y359.0 F2000
G1 X221.5 Y359.0 F2000
G1 X222.0 Y359.5 F2000
G1 X222.5 Y359.0 F2000
G1 X223.0 Y359.5 F2000
G1 X223.0 Y358.0 F2000
G1 X223.5 Y357.5 F2000
G1 X224.0 Y357.5 F2000
G1 X224.5 Y357.0 F2000
G1 X225.0 Y357.0 F2000
G1 X226.0 Y358.0 F2000
G1 X226.0 Y358.5 F2000
G1 X226.5 Y359.0 F2000
G1 X226.5 Y359.5 F2000
G1 X227.5 Y358.5 F2000
G1 X228.0 Y358.5 F2000
G1 X229.0 Y359.5 F2000
G1 X229.0 Y359.0 F2000
G1 X228.0 Y358.0 F2000
G1 X227.5 Y358.0 F2000
G1 X227.5 Y358.5 F2000
G1 X227.0 Y359.0 F2000
G1 X226.5 Y359.0 F2000
G1 X226.0 Y358.5 F2000
G1 X226.0 Y358.0 F2000
G1 X225.5 Y357.5 F2000
G1 X225.5 Y357.0 F2000
G1 X224.0 Y357.0 F2000
G1 X223.0 Y358.0 F2000
G1 X223.0 Y358.5 F2000
G1 X222.5 Y359.0 F2000
G1 X221.5 Y358.0 F2000
G1 X221.5 Y357.0 F2000
G1 X222.0 Y356.5 F2000
G1 X222.0 Y356.0 F2000
G1 X222.0 Y356.5 F2000
G1 X221.0 Y357.5 F2000
G1 X220.0 Y357.5 F2000
G1 X219.5 Y357.0 F2000
G1 X219.5 Y355.5 F2000
G1 X220.0 Y355.0 F2000
G1 X220.5 Y355.5 F2000
G1 X220.5 Y356.0 F2000
G1 X221.0 Y356.0 F2000
G1 Z5.0 F3000 ; Lift pen

; Contour 28 with 10 points
G0 X356.5 Y354.5 F3000 ; Move to start
G1 Z-2.0 F1000 ; Lower pen
G1 X356.0 Y355.0 F2000
G1 X355.5 Y355.0 F2000
G1 X356.0 Y355.0 F2000
G1 X356.5 Y354.5 F2000
G1 X357.5 Y354.5 F2000
G1 X358.5 Y355.5 F2000
G1 X358.5 Y355.0 F2000
G1 X358.0 Y355.0 F2000
G1 X357.5 Y354.5 F2000
G1 Z5.0 F3000 ; Lift pen

; Contour 29 with 6 points
G0 X287.5 Y354.5 F3000 ; Move to start
G1 Z-2.0 F1000 ; Lower pen
G1 X287.5 Y355.5 F2000
G1 X287.0 Y356.0 F2000
G1 X287.0 Y356.5 F2000
G1 X287.0 Y356.0 F2000
G1 X287.5 Y355.5 F2000
G1 Z5.0 F3000 ; Lift pen

; Contour 30 with 10 points
G0 X267.5 Y354.5 F3000 ; Move to start
G1 Z-2.0 F1000 ; Lower pen
G1 X267.5 Y355.0 F2000
G1 X268.0 Y355.5 F2000
G1 X269.0 Y355.5 F2000
G1 X269.0 Y355.0 F2000
G1 X268.5 Y354.5 F2000
G1 X269.0 Y355.0 F2000
G1 X268.5 Y355.5 F2000
G1 X268.0 Y355.5 F2000
G1 X267.5 Y355.0 F2000
G1 Z5.0 F3000 ; Lift pen

; Contour 31 with 39 points
G0 X216.0 Y354.5 F3000 ; Move to start
G1 Z-2.0 F1000 ; Lower pen
G1 X215.5 Y355.0 F2000
G1 X215.0 Y355.0 F2000
G1 X214.5 Y355.5 F2000
G1 X214.5 Y356.0 F2000
G1 X214.0 Y356.5 F2000
G1 X214.0 Y358.5 F2000
G1 X214.5 Y359.0 F2000
G1 X214.5 Y359.5 F2000
G1 X214.5 Y358.5 F2000
G1 X215.0 Y358.0 F2000
G1 X215.0 Y357.5 F2000
G1 X215.5 Y357.0 F2000
G1 X216.0 Y357.5 F2000
G1 X216.5 Y357.5 F2000
G1 X216.5 Y357.0 F2000
G1 X216.0 Y356.5 F2000
G1 X215.5 Y356.5 F2000
G1 X215.5 Y357.0 F2000
G1 X215.0 Y357.5 F2000
G1 X215.0 Y358.0 F2000
G1 X214.5 Y358.5 F2000
G1 X214.0 Y358.0 F2000
G1 X214.0 Y357.0 F2000
G1 X214.5 Y356.5 F2000
G1 X214.5 Y356.0 F2000
G1 X216.0 Y354.5 F2000
G1 X216.5 Y355.0 F2000
G1 X216.5 Y355.5 F2000
G1 X217.5 Y356.5 F2000
G1 X217.5 Y357.5 F2000
G1 X218.0 Y358.0 F2000
G1 X218.0 Y357.0 F2000
G1 X217.5 Y356.5 F2000
G1 X217.5 Y356.0 F2000
G1 X218.0 Y355.5 F2000
G1 X218.0 Y355.0 F2000
G1 X218.0 Y355.5 F2000
G1 X217.5 Y356.0 F2000
; Closing contour 31
G1 X216.0 Y354.5 F2000
G1 Z5.0 F3000 ; Lift pen

; Contour 32 with 6 points
G0 X207.5 Y354.5 F3000 ; Move to start
G1 Z-2.0 F1000 ; Lower pen
G1 X208.0 Y354.5 F2000
G1 X208.5 Y355.0 F2000
G1 X208.0 Y355.5 F2000
G1 X208.5 Y355.0 F2000
G1 X208.5 Y354.5 F2000
G1 Z5.0 F3000 ; Lift pen

; Contour 33 with 26 points
G0 X317.0 Y354.0 F3000 ; Move to start
G1 Z-2.0 F1000 ; Lower pen
G1 X317.5 Y354.0 F2000
G1 X319.0 Y355.5 F2000
G1 X319.0 Y356.0 F2000
G1 X318.5 Y356.5 F2000
G1 X318.5 Y357.5 F2000
G1 X318.0 Y358.0 F2000
G1 X318.0 Y359.5 F2000
G1 X318.0 Y358.0 F2000
G1 X318.5 Y357.5 F2000
G1 X318.5 Y356.5 F2000
G1 X319.0 Y356.0 F2000
G1 X319.5 Y356.5 F2000
G1 X319.5 Y358.5 F2000
G1 X319.0 Y359.0 F2000
G1 X319.0 Y359.5 F2000
G1 X319.0 Y359.0 F2000
G1 X319.5 Y358.5 F2000
G1 X319.5 Y356.0 F2000
G1 X318.5 Y355.0 F2000
G1 X319.0 Y354.5 F2000
G1 X319.5 Y354.5 F2000
G1 X319.5 Y354.0 F2000
G1 X318.5 Y355.0 F2000
G1 X318.0 Y354.5 F2000
G1 X318.0 Y354.0 F2000
G1 Z5.0 F3000 ; Lift pen

; Contour 34 with 14 points
G0 X307.5 Y354.0 F3000 ; Move to start
G1 Z-2.0 F1000 ; Lower pen
G1 X307.5 Y355.0 F2000
G1 X307.0 Y355.5 F2000
G1 X307.0 Y357.0 F2000
G1 X306.5 Y357.5 F2000
G1 X306.5 Y358.0 F2000
G1 X306.5 Y357.5 F2000
G1 X307.0 Y357.0 F2000
G1 X307.0 Y356.0 F2000
G1 X308.5 Y354.5 F2000
G1 X310.0 Y354.5 F2000
G1 X308.5 Y354.5 F2000
G1 X308.0 Y355.0 F2000
G1 X307.5 Y354.5 F2000
G1 Z5.0 F3000 ; Lift pen

; Contour 36 with 6 points
G0 X229.0 Y354.0 F3000 ; Move to start
G1 Z-2.0 F1000 ; Lower pen
G1 X229.5 Y354.0 F2000
G1 X230.0 Y354.5 F2000
G1 X229.5 Y355.0 F2000
G1 X230.0 Y355.0 F2000
G1 X230.0 Y354.0 F2000
G1 Z5.0 F3000 ; Lift pen

; Contour 37 with 12 points
G0 X226.5 Y354.0 F3000 ; Move to start
G1 Z-2.0 F1000 ; Lower pen
G1 X227.0 Y354.0 F2000
G1 X228.5 Y355.5 F2000
G1 X228.5 Y356.0 F2000
G1 X228.0 Y356.5 F2000
G1 X228.0 Y357.0 F2000
G1 X228.5 Y356.5 F2000
G1 X228.5 Y355.5 F2000
G1 X228.0 Y355.0 F2000
G1 X228.0 Y354.5 F2000
G1 X227.5 Y354.5 F2000
G1 X227.0 Y354.0 F2000
G1 Z5.0 F3000 ; Lift pen

; Contour 38 with 27 points
G0 X325.0 Y353.5 F3000 ; Move to start
G1 Z-2.0 F1000 ; Lower pen
G1 X324.5 Y354.0 F2000
G1 X324.0 Y354.0 F2000
G1 X323.5 Y354.5 F2000
G1 X323.5 Y355.0 F2000
G1 X323.0 Y355.5 F2000
G1 X323.5 Y356.0 F2000
G1 X323.5 Y356.5 F2000
G1 X323.0 Y357.0 F2000
G1 X322.5 Y357.0 F2000
G1 X321.0 Y358.5 F2000
G1 X320.5 Y358.5 F2000
G1 X320.5 Y359.5 F2000
G1 X320.5 Y359.0 F2000
G1 X321.5 Y358.0 F2000
G1 X322.0 Y358.0 F2000
G1 X322.0 Y357.5 F2000
G1 X322.5 Y357.0 F2000
G1 X323.5 Y357.0 F2000
G1 X324.0 Y356.5 F2000
G1 X324.0 Y356.0 F2000
G1 X324.5 Y355.5 F2000
G1 X324.0 Y356.0 F2000
G1 X323.5 Y355.5 F2000
G1 X323.5 Y355.0 F2000
G1 X324.5 Y354.0 F2000
G1 X325.0 Y354.5 F2000
G1 Z5.0 F3000 ; Lift pen

; Contour 39 with 8 points
G0 X299.5 Y353.0 F3000 ; Move to start
G1 Z-2.0 F1000 ; Lower pen
G1 X299.5 Y354.0 F2000
G1 X298.0 Y355.5 F2000
G1 X298.0 Y356.0 F2000
G1 X299.5 Y354.5 F2000
G1 X300.0 Y354.5 F2000
G1 X300.5 Y355.0 F2000
G1 X299.5 Y354.0 F2000
G1 Z5.0 F3000 ; Lift pen

; Contour 40 with 27 points
G0 X282.0 Y353.0 F3000 ; Move to start
G1 Z-2.0 F1000 ; Lower pen
G1 X281.5 Y353.5 F2000
G1 X281.5 Y354.5 F2000
G1 X282.0 Y355.0 F2000
G1 X282.0 Y356.0 F2000
G1 X281.5 Y356.5 F2000
G1 X281.0 Y356.5 F2000
G1 X280.5 Y357.0 F2000
G1 X280.0 Y357.0 F2000
G1 X279.5 Y357.5 F2000
G1 X279.5 Y359.5 F2000
G1 X279.5 Y358.0 F2000
G1 X280.5 Y357.0 F2000
G1 X281.0 Y357.0 F2000
G1 X281.5 Y356.5 F2000
G1 X282.0 Y356.5 F2000
G1 X282.5 Y356.0 F2000
G1 X283.0 Y356.0 F2000
G1 X283.5 Y356.5 F2000
G1 X283.5 Y356.0 F2000
G1 X283.0 Y355.5 F2000
G1 X282.5 Y356.0 F2000
G1 X282.0 Y355.5 F2000
G1 X282.0 Y355.0 F2000
G1 X281.5 Y354.5 F2000
G1 X281.5 Y354.0 F2000
G1 X282.5 Y353.0 F2000
G1 Z5.0 F3000 ; Lift pen

